!! 00000] TT[WS
!!!OTL: Zhong yangyan
!!!ARE: Asia, China, Shanxi Hequ
!! Ethnic Group: Han
!! WI, 265 (1)
!!!SCT: J0312
!!!YEM: Copyright 1995, estate of Helmut Schaffrath.
**kern
*ICvox
*Ivox
*M2/4
*k[b-e-]
*B-:
{8ccc
8fff
8fff
8ddd
=1
4ccc
8ccc
8ddd
=2
8bb-
8gg
8bb-
8ddd
=3
2ccc}
=4
{8fff
8fff
8fff
8ddd
=5
8fff
8aa
8gg
8bb-
=6
4.ff
8gg
=7
8dd
8ff
8dd
8cc}
=8
{8ccc
8fff
8fff
8ddd
=9
8ccc
8ddd
8ccc
8bb-
=10
8gg
8bb-
8ff
8dd
=11
2cc}
=12
{8bb-
8ddd
8ccc
8bb-
=13
8gg
8bb-
8ff
8dd
=14
2cc}
=15
{8bb-
8ccc
8fff
8ddd
=16
4.ccc
8ddd
=17
2ccc}
==
!!!AGN: Xiaodiao. Laodong, Zhongzhi
!!!ONB: ESAC (Essen Associative Code) Database: CHINA
!!!AMT: simple duple
!!!AIN: vox
!!!EED: Helmut Schaffrath
!!!EEV: 1.0
*-
